!!!COM: Bach, Johann Sebastian
!!!OPR: Joh. Seb. Bachs vierstimmige Choralges‰nge
!!!XEN: Four-part Chorales
!!!OTL: 181. Wer nur den lieben Gott l‰sst walten
!!!SCT: BWV 434
!!!SCA: Thematisch-systematisches Verzeichnis der musikalischen Werke Johann Sebastian Bach: Bach-Werke-Verzeichnis (Schmieder)
!!!YOR: Bach Gesellschaft Edition xxxix
!!!ENC: Steven Rasmussen
!!!CDT: 1685/3//-1750/7/28/
!!!OCY: Deutschland
!!!YEC: Copyright (c) 1994, 2000 Center for Computer Assisted Research in the Humanities
!!!YEM: Rights to all derivative editions reserved
!!!YEN: United States of America
**kern	**silbe	**kern	**kern	**kern
*I:[SOPRANO]	*I:[SOPRANO]	*I:[ALTO]	*I:[TENORE]	*I:[BASSO]
*>[A,A,B]	*	*>[A,A,B]	*>[A,A,B]	*>[A,A,B]
*>A	*	*>A	*>A	*>A
*clefG2	*	*clefG2	*clefGv2	*clefF4
*k[]	*	*k[]	*k[]	*k[]
*a:	*	*a:	*a:	*a:
*M4/4	*	*M4/4	*M4/4	*M4/4
4e	Werden	8cL	8AL	4A
.	.	8dJ	8BJ	.
=1	=1	=1	=1	=1
4a	nurwird	4e	8cL	4C
.	.	.	8BJ	.
4b	dener	4e	8AL	4E
.	.	.	8G#J	.
4cc	lie-wun-	8eL	4A	4AA
.	.	8f#J	.	.
4b	-ben-der-	4g#	4D	4BB
=2	=2	=2	=2	=2
4a	Gott-bar	8aL	8EL	4C
.	.	8gJ	8eJ	.
4b	l√§sster-	4f	8dL	4D
.	.	.	8cJ	.
4.g#	wal--hal-	2e	4.B	2E
8f#	.	.	8A	.
=3	=3	=3	=3	=3
4e;	-ten-ten	4B;	4G#;	4E;
4g	undin	4e	4B	4E
4g	hof-al-	4e	4c	4A
4f	-fet-lem	4d	8dL	8BL
.	.	.	8cJ	8AJ
=4	=4	=4	=4	=4
4e	aufKreuz	8dL	8BL	8G#L
.	.	8c#J	8AJ	8GnJ
4a	ihnund	8dL	8AL	8F#L
.	.	8d#J	8BJ	8FnJ
8aL	al-Trau-	8eL	8cL	8EL
8bJ	.	8f#J	8BJ	8D#J
4g#	-le--rig-	4e	8BL	4E
.	.	.	16cL	.
.	.	.	16dJJ	.
=5	=5	=5	=5	=5
2.a;	-zeit,-keit.	2.e;	2.c;	2.AA;
=:|!	=:|!	=:|!	=:|!	=:|!
*>B	*	*>B	*>B	*>B
4b	Wer	4g#	4e	4E
=6	=6	=6	=6	=6
4cc	Gott	4a	4e	4A
4dd	dem	4g	4d	4B
4ee	Al-	4g	4c	8cL
.	.	.	.	8BJ
4ee	-ler-	4a	4c	8AL
.	.	.	.	8GJ
=7	=7	=7	=7	=7
8ddL	-h√∂ch-	4a	4c	8FL
16eeL	.	.	.	8DJ
16ffJJ	.	.	.	.
4dd	-sten	8gL	4B	4G
.	.	8fJ	.	.
4cc;	traut,	4e;	4G;	4C;
4ee	der	4e	4A	4C#
=8	=8	=8	=8	=8
4dd	hat	8f#L	8AL	8DL
.	.	8g#J	8eJ	8EJ
4cc	auf	4a	8eL	8FL
.	.	.	8e-J	8F#J
4b	kei-	8gnL	4d	8GL
.	.	8fnJ	.	8G#J
8aL	-nen	4e	8cL	4A
8bJ	.	.	8BJ	.
=9	=9	=9	=9	=9
8ccL	Sand	4f#	4A	4D#
8bJ	.	.	.	.
4b	ge-	8eL	4G#	4E
.	.	8dJ	.	.
4a;	-baut.	4c#;	4E;	4AA;
==|!	==|!	==|!	==|!	==|!
*-	*-	*-	*-	*-
!!!RWG: Key is interpreted using the Humdrum key tool.
!!!END: 1994/08/09
!!!EMD: Converted from MuseData to Humdrum Dec 19, 2000, by Andreas Kornstaedt using muse2kern.
!!!EED: Craig Stuart Sapp
!!!EEV: 2024/03/31
!!!ONB: Some non-unicode characters
